HobbyEEProjects/Sunnyside_Electronics_Presentations/Pictures/HandsOn_1.svg

<?xml version="1.0" encoding="UTF-8" standalone="no"?>
<!-- Generator: Circuit Diagram, cdlibrary.dll 4.0.0.0 -->

<svg
   version="1.1"
   width="220"
   height="140"
   id="svg15"
   sodipodi:docname="HandsOn_1.svg"
   inkscape:version="1.3.2 (091e20e, 2023-11-25)"
   xmlns:inkscape="http://www.inkscape.org/namespaces/inkscape"
   xmlns:sodipodi="http://sodipodi.sourceforge.net/DTD/sodipodi-0.dtd"
   xmlns="http://www.w3.org/2000/svg"
   xmlns:svg="http://www.w3.org/2000/svg">
  <defs
     id="defs15" />
  <sodipodi:namedview
     id="namedview15"
     pagecolor="#ffffff"
     bordercolor="#000000"
     borderopacity="0.25"
     inkscape:showpageshadow="2"
     inkscape:pageopacity="0.0"
     inkscape:pagecheckerboard="0"
     inkscape:deskcolor="#d1d1d1"
     inkscape:zoom="1.6857143"
     inkscape:cx="110.04237"
     inkscape:cy="70"
     inkscape:window-width="1312"
     inkscape:window-height="449"
     inkscape:window-x="0"
     inkscape:window-y="97"
     inkscape:window-maximized="0"
     inkscape:current-layer="svg15" />
  <line
     x1="60"
     y1="40"
     x2="60"
     y2="50"
     style="stroke:rgb(0, 0, 0);stroke-linecap:square;stroke-width:2"
     id="line1" />
  <line
     x1="160"
     y1="80"
     x2="160"
     y2="50"
     style="stroke:rgb(0, 0, 0);stroke-linecap:square;stroke-width:2"
     id="line2" />
  <g
     id="g15"
     transform="matrix(1,0,0,-1,0,118.76393)">
    <path
       d="m 160,58 m -8,0 h 16 m -8,0 8,15 h -16 l 8,-15"
       style="fill:#000000;fill-opacity:0;stroke:#000000;stroke-width:2;stroke-linecap:square"
       id="path2" />
    <path
       d="m 160,60 m 11,2 8,-8 m 1,-1 -2,4 -2,-2 4,-2 -2,4"
       style="fill:#000000;fill-opacity:0;stroke:#000000;stroke-width:2;stroke-linecap:square"
       id="path3" />
    <path
       d="m 160,60 m 4,-4 8,-8 m 1,-1 -2,4 -2,-2 4,-2 -2,4"
       style="fill:#000000;fill-opacity:0;stroke:#000000;stroke-width:2;stroke-linecap:square"
       id="path4" />
  </g>
  <line
     x1="60"
     y1="20"
     x2="60"
     y2="40"
     style="stroke:rgb(0, 0, 0);stroke-linecap:square;stroke-width:2"
     id="line4" />
  <line
     x1="60"
     y1="50"
     x2="60"
     y2="51"
     style="stroke:rgb(0, 0, 0);stroke-linecap:square;stroke-width:2"
     id="line5" />
  <line
     x1="50"
     y1="51"
     x2="70"
     y2="51"
     style="stroke:rgb(0, 0, 0);stroke-linecap:square;stroke-width:2"
     id="line6" />
  <line
     x1="55"
     y1="57"
     x2="65"
     y2="57"
     style="stroke:rgb(0, 0, 0);stroke-linecap:square;stroke-width:2"
     id="line7" />
  <line
     x1="50"
     y1="63"
     x2="70"
     y2="63"
     style="stroke:rgb(0, 0, 0);stroke-linecap:square;stroke-width:2"
     id="line8" />
  <line
     x1="55"
     y1="69"
     x2="65"
     y2="69"
     style="stroke:rgb(0, 0, 0);stroke-linecap:square;stroke-width:2"
     id="line9" />
  <line
     x1="60"
     y1="69"
     x2="60"
     y2="70"
     style="stroke:rgb(0, 0, 0);stroke-linecap:square;stroke-width:2"
     id="line10" />
  <text
     x="46"
     y="60"
     style="font-family:Arial;font-size:12px;text-anchor:end"
     dominant-baseline="middle"
     transform="rotate(0, 46, 60)"
     id="text10">+3V</text>
  <line
     x1="60"
     y1="70"
     x2="60"
     y2="110"
     style="stroke:rgb(0, 0, 0);stroke-linecap:square;stroke-width:2"
     id="line11" />
  <line
     x1="60"
     y1="110"
     x2="160"
     y2="110"
     style="stroke:rgb(0, 0, 0);stroke-linecap:square;stroke-width:2"
     id="line12" />
  <line
     x1="160"
     y1="80"
     x2="160"
     y2="110"
     style="stroke:rgb(0, 0, 0);stroke-linecap:square;stroke-width:2"
     id="line13" />
  <line
     x1="160"
     y1="20"
     x2="160"
     y2="50"
     style="stroke:rgb(0, 0, 0);stroke-linecap:square;stroke-width:2"
     id="line14" />
  <line
     x1="60"
     y1="20"
     x2="160"
     y2="20"
     style="stroke:rgb(0, 0, 0);stroke-linecap:square;stroke-width:2"
     id="line15" />
</svg>

﻿<?xml version="1.0" encoding="utf-8"?>
<!-- Generator: Circuit Diagram, cdlibrary.dll 4.0.0.0 -->
<!DOCTYPE svg PUBLIC "-//W3C//DTD SVG 1.1//EN" "http://www.w3.org/Graphics/SVG/1.1/DTD/svg11.dtd">
<svg version="1.1" width="220" height="140" xmlns="http://www.w3.org/2000/svg">
	<line x1="60" y1="40" x2="60" y2="50" style="stroke:rgb(0, 0, 0);stroke-linecap:square;stroke-width:2" />
	<line x1="160" y1="80" x2="160" y2="50" style="stroke:rgb(0, 0, 0);stroke-linecap:square;stroke-width:2" />
	<path d="M 160,58 M 152,58 L 168,58 M 160,58 L 168,73 L 152,73 L 160,58" style="fill-opacity:0;fill:rgb(0, 0, 0);stroke:rgb(0, 0, 0);stroke-linecap:square;stroke-width:2" />
	<path d="M 160,60 M 171,62 L 179,54 M 180,53 L 178,57 L 176,55 L 180,53 L 178,57" style="fill-opacity:0;fill:rgb(0, 0, 0);stroke:rgb(0, 0, 0);stroke-linecap:square;stroke-width:2" />
	<path d="M 160,60 M 164,56 L 172,48 M 173,47 L 171,51 L 169,49 L 173,47 L 171,51" style="fill-opacity:0;fill:rgb(0, 0, 0);stroke:rgb(0, 0, 0);stroke-linecap:square;stroke-width:2" />
	<line x1="60" y1="20" x2="60" y2="40" style="stroke:rgb(0, 0, 0);stroke-linecap:square;stroke-width:2" />
	<line x1="60" y1="50" x2="60" y2="51" style="stroke:rgb(0, 0, 0);stroke-linecap:square;stroke-width:2" />
	<line x1="50" y1="51" x2="70" y2="51" style="stroke:rgb(0, 0, 0);stroke-linecap:square;stroke-width:2" />
	<line x1="55" y1="57" x2="65" y2="57" style="stroke:rgb(0, 0, 0);stroke-linecap:square;stroke-width:2" />
	<line x1="50" y1="63" x2="70" y2="63" style="stroke:rgb(0, 0, 0);stroke-linecap:square;stroke-width:2" />
	<line x1="55" y1="69" x2="65" y2="69" style="stroke:rgb(0, 0, 0);stroke-linecap:square;stroke-width:2" />
	<line x1="60" y1="69" x2="60" y2="70" style="stroke:rgb(0, 0, 0);stroke-linecap:square;stroke-width:2" />
	<text x="46" y="60" style="font-family:Arial;font-size:12px;text-anchor:end" dominant-baseline="middle" transform="rotate(0, 46, 60)">+3V</text>
	<line x1="60" y1="70" x2="60" y2="110" style="stroke:rgb(0, 0, 0);stroke-linecap:square;stroke-width:2" />
	<line x1="60" y1="110" x2="160" y2="110" style="stroke:rgb(0, 0, 0);stroke-linecap:square;stroke-width:2" />
	<line x1="160" y1="80" x2="160" y2="110" style="stroke:rgb(0, 0, 0);stroke-linecap:square;stroke-width:2" />
	<line x1="160" y1="20" x2="160" y2="50" style="stroke:rgb(0, 0, 0);stroke-linecap:square;stroke-width:2" />
	<line x1="60" y1="20" x2="160" y2="20" style="stroke:rgb(0, 0, 0);stroke-linecap:square;stroke-width:2" />
</svg>
